Otagle3/Assets/ikonySvG/WlaczIWylaczLinieSiatki.svg

<?xml version="1.0" encoding="UTF-8" standalone="no"?>
<svg
   xmlns:dc="http://purl.org/dc/elements/1.1/"
   xmlns:cc="http://creativecommons.org/ns#"
   xmlns:rdf="http://www.w3.org/1999/02/22-rdf-syntax-ns#"
   xmlns:svg="http://www.w3.org/2000/svg"
   xmlns="http://www.w3.org/2000/svg"
   id="svg47"
   version="1.1"
   viewBox="0 0 52.758294 52.758296"
   height="199.40143"
   width="199.40143">
  <defs
     id="defs42">
    <pattern
       id="EMFhbasepattern"
       patternUnits="userSpaceOnUse"
       width="6"
       height="6"
       x="0"
       y="0" />
  </defs>
  <metadata
     id="metadata45">
    <rdf:RDF>
      <cc:Work
         rdf:about="">
        <dc:format>image/svg+xml</dc:format>
        <dc:type
           rdf:resource="http://purl.org/dc/dcmitype/StillImage" />
        <dc:title></dc:title>
      </cc:Work>
    </rdf:RDF>
  </metadata>
  <g
     id="g8556"
     transform="translate(49.836509,-375.23204)">
    <g
       id="g5305">
      <g
         id="g10322"
         transform="translate(-1668.3969,6.3971969)">
        <rect
           style="fill:#ffffff;stroke:#000000;stroke-width:0.49999899;stroke-linecap:round;stroke-miterlimit:4;stroke-dasharray:none;stroke-opacity:1;paint-order:fill markers stroke"
           id="rect833-1-5-3-7-4-8-5-1-4-2-8-1-5-8-6-0-5-58-4-8-8-2"
           width="52.258293"
           x="1618.777"
           y="369.25134"
           height="52.258293" />
        <text
           xml:space="preserve"
           style="font-size:6.3499999px;line-height:0.94999999;font-family:voestalpine;-inkscape-font-specification:voestalpine;text-align:center;letter-spacing:0px;word-spacing:0px;text-anchor:middle;stroke-width:0.26458299"
           x="1645.2593"
           y="412.89352"
           id="text898-7-3-6-8-3-3-0-66-7-8-8-0-8-3-4-2-6-22-3-3-4-7"><tspan
             id="tspan2732-1-9-4-4"
             x="1645.2593"
             y="412.89352"
             style="font-size:6.3499999px;text-align:center;text-anchor:middle;stroke-width:0.26458299">Włącz lub wyłącz</tspan><tspan
             id="tspan3280"
             x="1645.2593"
             y="418.92603"
             style="font-size:6.3499999px;text-align:center;text-anchor:middle;stroke-width:0.26458299">linie siatki</tspan></text>
        <g
           transform="matrix(0.35903476,0,0,0.35903476,1626.4507,370.70762)"
           id="g3375"
           style="fill:#000000">
          <g
             id="g3347"
             style="fill:none;fill-rule:evenodd;stroke:none;stroke-width:1">
            <path
               d="M 23,23 V 88 H 88 V 23 Z M 22,22 H 89 V 89 H 22 Z"
               id="path3313"
               style="fill:#000000;fill-rule:nonzero" />
            <path
               d="m 10,10 v 8 h 8 V 10 Z M 9,9 H 19 V 19 H 9 Z"
               id="path3315"
               style="fill:#000000;fill-rule:nonzero" />
            <path
               d="m 9.1464466,9.8535534 c -0.1952621,-0.1952622 -0.1952621,-0.5118446 0,-0.7071068 0.1952622,-0.1952621 0.5118446,-0.1952621 0.7071068,0 l 8.9999996,9.0000004 c 0.195262,0.195262 0.195262,0.511844 0,0.707106 -0.195262,0.195262 -0.511844,0.195262 -0.707106,0 z"
               id="path3317"
               style="fill:#000000;fill-rule:nonzero" />
            <polygon
               points="33,88.167857 33,22 34,22 34,88.167857 "
               id="polygon3319"
               style="fill:#000000;fill-rule:nonzero" />
            <polygon
               points="66,88.167857 66,22 67,22 67,88.167857 "
               id="polygon3321"
               style="fill:#000000;fill-rule:nonzero" />
            <polygon
               points="44,88.167857 44,22 45,22 45,88.167857 "
               id="polygon3323"
               style="fill:#000000;fill-rule:nonzero" />
            <polygon
               points="77,88.167857 77,22 78,22 78,88.167857 "
               id="polygon3325"
               style="fill:#000000;fill-rule:nonzero" />
            <polygon
               points="55,88.167857 55,22 56,22 56,88.167857 "
               id="polygon3327"
               style="fill:#000000;fill-rule:nonzero" />
            <polygon
               transform="matrix(0,-1,-1,0,89.083929,89.083929)"
               points="55,66.667857 55,0.5 56,0.5 56,66.667857 "
               id="polygon3329"
               style="fill:#000000;fill-rule:nonzero" />
            <polygon
               transform="matrix(0,-1,-1,0,133.08393,133.08393)"
               points="55,110.66786 55,44.5 56,44.5 56,110.66786 "
               id="polygon3331"
               style="fill:#000000;fill-rule:nonzero" />
            <polygon
               transform="matrix(0,-1,-1,0,111.08393,111.08393)"
               points="55,88.667857 55,22.5 56,22.5 56,88.667857 "
               id="polygon3333"
               style="fill:#000000;fill-rule:nonzero" />
            <polygon
               transform="matrix(0,-1,-1,0,100.08393,100.08393)"
               points="55,77.667857 55,11.5 56,11.5 56,77.667857 "
               id="polygon3335"
               style="fill:#000000;fill-rule:nonzero" />
            <polygon
               transform="matrix(0,-1,-1,0,122.58393,122.58393)"
               points="55.5,99.667857 55.5,33.5 56.5,33.5 56.5,99.667857 "
               id="polygon3337"
               style="fill:#000000;fill-rule:nonzero" />
            <polygon
               points="13,89 13,18.5 14,18.5 14,89 "
               id="polygon3339"
               style="fill:#000000;fill-rule:nonzero" />
            <polygon
               points="89,14 18,14 18,13 89,13 "
               id="polygon3341"
               style="fill:#000000;fill-rule:nonzero" />
            <polygon
               points="88,18 88,9 89,9 89,18 "
               id="polygon3343"
               style="fill:#000000;fill-rule:nonzero" />
            <polygon
               points="18,89 9,89 9,88 18,88 "
               id="polygon3345"
               style="fill:#000000;fill-rule:nonzero" />
          </g>
        </g>
      </g>
    </g>
  </g>
</svg>

<svg id="SVGRoot" width="208" height="208" version="1.1" viewBox="0 0 208 208" xmlns="http://www.w3.org/2000/svg">
 <g transform="translate(0,7)">
  <g transform="matrix(3.7795 0 0 3.7795 10.171 -6.7758)">
   <g transform="translate(-1.0884 -121.69)">
    <g transform="translate(1.6608 -59.209)">
     <g transform="translate(-.6443 -59.335)">
      <g transform="translate(-1396.8 269.89)">
       <g transform="translate(-57.972 -.024822)">
        <g transform="translate(1658.1 73.867)">
         <g transform="translate(-203.03 -103.33)">
          <flowRoot transform="matrix(.26458 0 0 .26458 -2.875 1.091)" fill="#000000" font-family="sans-serif" font-size="40px" letter-spacing="0px" word-spacing="0px" style="line-height:1.25" xml:space="preserve"><flowRegion><rect x="-85.582" y="-60.812" width="342.33" height="293.65"/></flowRegion><flowPara/></flowRoot>
          <g transform="translate(-1039.4 318.88)">
           <flowRoot transform="matrix(.26458 0 0 .26458 1036.5 -317.79)" fill="#000000" font-family="sans-serif" font-size="40px" letter-spacing="0px" word-spacing="0px" style="line-height:1.25" xml:space="preserve"><flowRegion><rect x="-105.21" y="-13.703" width="562.17" height="513.49"/></flowRegion><flowPara/></flowRoot>
           <g transform="translate(-66.134 .039287)">
            <g transform="translate(-66.173 .043409)">
             <flowRoot transform="matrix(.26458 0 0 .26458 1168.8 -317.87)" fill="#000000" font-family="sans-serif" font-size="40px" letter-spacing="0px" word-spacing="0px" style="line-height:1.25" xml:space="preserve"><flowRegion><rect x="-114.63" y="-91.434" width="675.23" height="522.91"/></flowRegion><flowPara/></flowRoot>
             <g transform="translate(-66.2 -.040316)">
              <g transform="translate(-65.918 -.60254)">
               <g transform="translate(-66.6 .14883)">
                <flowRoot fill="black" font-family="sans-serif" font-size="40px" letter-spacing="0px" word-spacing="0px" style="line-height:1.25" xml:space="preserve"><flowRegion><rect x="-24.34" y="-19.695" width="252.04" height="245.75"/></flowRegion><flowPara/></flowRoot>
                <g transform="translate(-68.678 -.48293)">
                 <flowRoot fill="black" font-family="sans-serif" font-size="40px" letter-spacing="0px" word-spacing="0px" style="line-height:1.25" xml:space="preserve"><flowRegion><rect x="-65.168" y="-26.762" width="382.37" height="335.26"/></flowRegion><flowPara/></flowRoot>
                 <g transform="translate(-63.347 .4912)">
                  <g transform="translate(529.82 -.18087)">
                   <g transform="translate(794.67 .06923)">
                    <g transform="translate(-198.36 .17569)">
                     <g transform="translate(-530.68 .043413)">
                      <g transform="translate(912.04 -.041317)">
                       <g transform="translate(132.58 -.39794)">
                        <g transform="translate(-580.62 .35866)">
                         <g transform="translate(-264.6 -.1571)">
                          <g transform="translate(463.55 .097138)">
                           <g transform="translate(-397.36 .059959)">
                            <g transform="translate(66.026 -.30592)">
                             <g transform="translate(-264.69 -.093008)">
                              <g transform="translate(734.89 179.33)">
                               <g transform="translate(-205.07 -178.97)">
                                <g transform="translate(-1081.1 -686.85)">
                                 <flowRoot fill="black" font-family="sans-serif" font-size="40px" letter-spacing="0px" word-spacing="0px" style="line-height:1.25" xml:space="preserve"><flowRegion><rect x="21" y="-71" width="223" height="308"/></flowRegion><flowPara/></flowRoot>
                                 <g transform="translate(-112.28 .55746)">
                                  <g transform="translate(-396.77 -.26462)">
                                   <g transform="translate(167.68 .26462)">
                                    <g transform="translate(457.35 -.55746)">
                                     <g transform="translate(452.66 .26458)">
                                      <g transform="translate(-797.14 .29285)">
                                       <rect x="1618.8" y="369.25" width="52.258" height="52.258" fill="#fff" stroke="#000" stroke-linecap="round" stroke-width=".5" style="paint-order:fill markers stroke"/>
                                       <text x="1645.2593" y="412.29202" font-family="sans-serif" font-size="4.9389px" letter-spacing="0px" stroke-width=".26458" text-align="center" text-anchor="middle" word-spacing="0px" style="line-height:0.94999999" xml:space="preserve"><tspan x="1645.2593" y="412.29202" text-align="center">Włącz lub wyłącz</tspan><tspan x="1645.2593" y="418.32452" text-align="center">linie siatki</tspan></text>
                                       <g transform="matrix(.35903 0 0 .35903 1626.5 370.71)">
                                        <g>
                                         <path d="m23 23v65h65v-65zm-1-1h67v67h-67z"/>
                                         <path d="m10 10v8h8v-8zm-1-1h10v10h-10z"/>
                                         <path d="m9.1464 9.8536c-.19526-.19526-.19526-.51184 0-.70711.19526-.19526.51184-.19526.70711 0l9 9c.19526.19526.19526.51184 0 .70711s-.51184.19526-.70711 0z"/>
                                         <polygon points="33 22 34 22 34 88.168 33 88.168"/>
                                         <polygon points="66 22 67 22 67 88.168 66 88.168"/>
                                         <polygon points="44 22 45 22 45 88.168 44 88.168"/>
                                         <polygon points="77 22 78 22 78 88.168 77 88.168"/>
                                         <polygon points="55 22 56 22 56 88.168 55 88.168"/>
                                         <polygon transform="matrix(0 -1 -1 0 89.084 89.084)" points="55 .5 56 .5 56 66.668 55 66.668"/>
                                         <polygon transform="matrix(0 -1 -1 0 133.08 133.08)" points="55 44.5 56 44.5 56 110.67 55 110.67"/>
                                         <polygon transform="matrix(0 -1 -1 0 111.08 111.08)" points="55 22.5 56 22.5 56 88.668 55 88.668"/>
                                         <polygon transform="matrix(0 -1 -1 0 100.08 100.08)" points="55 11.5 56 11.5 56 77.668 55 77.668"/>
                                         <polygon transform="matrix(0 -1 -1 0 122.58 122.58)" points="55.5 33.5 56.5 33.5 56.5 99.668 55.5 99.668"/>
                                         <polygon points="13 18.5 14 18.5 14 89 13 89"/>
                                         <polygon points="18 14 18 13 89 13 89 14"/>
                                         <polygon points="88 9 89 9 89 18 88 18"/>
                                         <polygon points="9 89 9 88 18 88 18 89"/>
                                        </g>
                                       </g>
                                      </g>
                                     </g>
                                    </g>
                                   </g>
                                  </g>
                                 </g>
                                </g>
                               </g>
                              </g>
                             </g>
                            </g>
                           </g>
                          </g>
                         </g>
                        </g>
                       </g>
                      </g>
                     </g>
                    </g>
                   </g>
                  </g>
                 </g>
                </g>
               </g>
              </g>
             </g>
            </g>
           </g>
          </g>
         </g>
        </g>
       </g>
      </g>
     </g>
    </g>
   </g>
  </g>
 </g>
</svg>
